X: 013
M: 6/8
L: 1/8
K: D
dcd ede | fag fed | fed f2g | aba a2A |\
dcd ede | fef ^g2a | faB def | cAA A2 :|
|: e |\
a^ga ecA | ^gfe f2f | bab gfe | fF^A B2A |\
dcd ede | fag fed | bab cge | cAc d2 :|

